icon-svg/zen.svg

<svg xmlns="http://www.w3.org/2000/svg" fill="#44739e" viewBox="0 0 24 24"><path d="M11.774 2a10 10 0 1 1-10 10 10 10 0 0 1 10-10m5.5 5.98-1.112 1.732a4.88 4.88 0 0 1 .535 2.246 4.96 4.96 0 0 1-4.956 4.964h-.009a4.814 4.814 0 0 1-2.232-.535L7.754 17.51a6.826 6.826 0 0 0 9.652-9.34Zm-5.542-2.855a6.833 6.833 0 0 0-6.832 6.82v.013a6.77 6.77 0 0 0 1.332 4.052A8.05 8.05 0 0 1 7.4 14.4a10.1 10.1 0 0 1 1.187-1.06 8.173 8.173 0 0 1 4.833-1.575 7.9 7.9 0 0 1 1.458.132l.284.058a3.4283 3.4283 0 1 0-6.855-.151v.151a2.16 2.16 0 0 0 .015.312l.018.155a8.2 8.2 0 0 0-1.292 1.2 5.06 5.06 0 0 1-.283-1.649A4.962 4.962 0 0 1 11.714 7h.008a4.81 4.81 0 0 1 2.235.537l1.732-1.124a6.67 6.67 0 0 0-3.957-1.288m1.722 7.263a7.81 7.81 0 0 0-4.567 1.47 3.43 3.43 0 0 0 6.213-1.291 7.67 7.67 0 0 0-1.646-.179"/></svg>

<?xml version="1.0" encoding="UTF-8"?>
<svg width="24px" fill="#44739e" height="24px" viewBox="0 0 24 24" version="1.1" xmlns="http://www.w3.org/2000/svg" xmlns:xlink="http://www.w3.org/1999/xlink">
            <path d="m 11.774,2 a 10,10 0 1 1 -10,10 10,10 0 0 1 10,-10 z m 5.5,5.98 -1.112,1.732 a 4.883,4.883 0 0 1 0.535,2.246 4.96,4.96 0 0 1 -4.956,4.964 H 11.732 A 4.814,4.814 0 0 1 9.5,16.387 L 7.754,17.51 A 6.826,6.826 0 0 0 17.406,8.17 Z M 11.732,5.125 A 6.833,6.833 0 0 0 4.9,11.945 v 0.013 A 6.77,6.77 0 0 0 6.232,16.01 8.046,8.046 0 0 1 7.4,14.4 a 10.12,10.12 0 0 1 1.187,-1.06 8.173,8.173 0 0 1 4.833,-1.575 7.924,7.924 0 0 1 1.458,0.132 l 0.284,0.058 A 3.4283314,3.4283314 0 1 0 8.307,11.804 c 0,0.051 0,0.1 0,0.151 a 2.16,2.16 0 0 0 0.015,0.312 L 8.34,12.422 A 8.183,8.183 0 0 0 7.048,13.622 5.058,5.058 0 0 1 6.765,11.973 4.962,4.962 0 0 1 11.714,7 h 0.008 a 4.81,4.81 0 0 1 2.235,0.537 L 15.689,6.413 A 6.669,6.669 0 0 0 11.732,5.125 Z m 1.722,7.263 a 7.811,7.811 0 0 0 -4.567,1.47 3.43,3.43 0 0 0 6.213,-1.291 7.674,7.674 0 0 0 -1.646,-0.179 z"/>

</svg>
